X:93
T: Der schwatzhafte Junggeselle
N: Q0139H
O: Osteuropa, UdSSR, Wolga - Gebiet, Neu - Galga
N: Zweistimmig notiert, Oberstimme kodiert.
R: Ballade, Indiskretion, verweigerter Beischlaf
M: 4/4
L: 1/16
K: F
C2 | F4E2D2C4B4 | A4c4F2z4
C2 | F4E2D2C4B4 | A4c4F2z2
F2G2 | A3AAAA2A4G2A2 | B2B2A2A2G6
A2 | G4G2G2G4F2G2 | A2B2A2G2F4z2
